svg/retailers/primark.svg

<?xml version="1.0" encoding="utf-8"?>
<!-- Generator: Adobe Illustrator 16.0.0, SVG Export Plug-In . SVG Version: 6.00 Build 0)  -->
<!DOCTYPE svg PUBLIC "-//W3C//DTD SVG 1.1//EN" "http://www.w3.org/Graphics/SVG/1.1/DTD/svg11.dtd">
<svg version="1.1" id="Layer_1" xmlns:sketch="http://www.bohemiancoding.com/sketch/ns"
	 xmlns="http://www.w3.org/2000/svg" xmlns:xlink="http://www.w3.org/1999/xlink" x="0px" y="0px" width="132px" height="18px"
	 viewBox="0 0 132 18" enable-background="new 0 0 132 18" xml:space="preserve">
<title>primark</title>
<g id="Page_1">
	<g id="primark">
		<path d="M12.182,2.181c-0.379-0.715-0.902-1.238-1.568-1.568c-0.421-0.207-0.976-0.359-1.662-0.461
			c-0.687-0.1-1.613-0.149-2.779-0.148H0v17.229h1.513v-0.004V9.566H5.32c1.104,0,2.038-0.049,2.803-0.148
			c0.765-0.1,1.4-0.253,1.906-0.46c0.957-0.4,1.654-0.973,2.089-1.717c0.436-0.745,0.65-1.604,0.644-2.577
			C12.755,3.724,12.562,2.895,12.182,2.181z M10.694,6.494C10.407,7.009,9.981,7.392,9.419,7.64
			c-0.482,0.203-1.08,0.344-1.794,0.424C6.912,8.142,6.118,8.179,5.246,8.176H1.513V1.392h4.148c1.131-0.013,2.036,0.02,2.715,0.098
			c0.679,0.077,1.23,0.282,1.653,0.61c0.345,0.26,0.613,0.605,0.805,1.039c0.192,0.435,0.29,0.934,0.293,1.498
			C11.126,5.362,10.981,5.981,10.694,6.494z"/>
		<path d="M27.606,9.495c1.593-0.179,2.803-0.675,3.629-1.488c0.828-0.813,1.246-1.896,1.25-3.245
			c-0.014-1.046-0.245-1.932-0.696-2.656c-0.451-0.727-1.031-1.239-1.742-1.541c-0.597-0.248-1.263-0.405-1.998-0.474
			c-0.733-0.067-1.541-0.097-2.418-0.089h-5.295V17.23h1.537V9.665h4.124l5.148,7.563h1.902L27.606,9.495z M25.873,8.275H21.87
			l0.001-0.003v-6.88h4.002c0.828-0.01,1.545,0.022,2.154,0.099c0.606,0.075,1.117,0.254,1.531,0.536
			c0.438,0.299,0.764,0.679,0.977,1.142c0.212,0.462,0.318,0.978,0.316,1.543c0.002,0.569-0.08,1.063-0.244,1.481
			s-0.416,0.779-0.756,1.08c-0.394,0.352-0.926,0.606-1.596,0.767S26.79,8.277,25.873,8.275z"/>
		<path d="M42.959,17.229V0.001h-1.537V17.23h1.537V17.229z"/>
		<path d="M68.02,17.229V0.001h-2.292c-1.332,3.607-2.343,6.343-3.027,8.203c-0.688,1.86-1.196,3.257-1.532,4.188
			c-0.336,0.936-0.646,1.812-0.931,2.641c-0.307-0.885-0.637-1.807-0.985-2.764c-0.351-0.959-0.877-2.358-1.583-4.201
			c-0.705-1.842-1.744-4.531-3.117-8.067H52.33V17.23h1.488c0-3.91-0.002-6.896-0.004-8.963C53.811,6.2,53.803,4.695,53.79,3.753
			s-0.037-1.68-0.067-2.213c0.252,0.771,0.557,1.646,0.911,2.625s0.911,2.458,1.666,4.438c0.755,1.979,1.854,4.854,3.304,8.627
			h1.195c1.148-3.039,2.087-5.522,2.812-7.459c0.727-1.934,1.32-3.535,1.783-4.8c0.463-1.266,0.875-2.419,1.234-3.455
			c-0.022,0.574-0.043,1.316-0.06,2.225c-0.014,0.908-0.022,2.385-0.028,4.432c-0.006,2.046-0.009,5.066-0.009,9.058h1.486v-0.002
			H68.02L68.02,17.229z"/>
		<path d="M83.076,0.001h-1.61l-6.71,17.229h1.708l1.83-5.026h7.784l1.806,5.026h1.708v-0.002L83.076,0.001z M78.807,10.859
			c0.754-1.998,1.353-3.576,1.785-4.737c0.438-1.161,0.775-2.069,1.016-2.727c0.242-0.655,0.447-1.227,0.615-1.711
			c0.17,0.5,0.371,1.073,0.607,1.724c0.236,0.649,0.568,1.55,0.997,2.704c0.43,1.152,1.017,2.736,1.763,4.748H78.807z"/>
		<path d="M104.002,9.495c1.592-0.179,2.803-0.675,3.63-1.488c0.829-0.813,1.246-1.896,1.251-3.245
			c-0.015-1.046-0.248-1.932-0.697-2.656c-0.451-0.727-1.033-1.239-1.742-1.541c-0.598-0.248-1.264-0.405-1.998-0.474
			c-0.732-0.067-1.541-0.097-2.42-0.089H96.73V17.23h1.537V9.665h4.123l5.147,7.563h1.905L104.002,9.495z M102.27,8.275h-4.002
			V8.272v-6.88h4.002c0.828-0.01,1.547,0.022,2.153,0.099c0.608,0.075,1.119,0.254,1.531,0.536c0.438,0.299,0.764,0.679,0.978,1.142
			c0.213,0.462,0.317,0.978,0.316,1.543c0.001,0.569-0.081,1.063-0.244,1.481c-0.164,0.418-0.416,0.779-0.757,1.08
			c-0.394,0.352-0.925,0.606-1.595,0.767C103.98,8.199,103.188,8.277,102.27,8.275z"/>
		<path d="M131.377,17.229l-7.102-10.541L130.62,0h-1.952l-9.175,9.834V0.001h-1.537V17.23h1.537v-5.467l3.733-3.979l6.317,9.441
			h1.831L131.377,17.229L131.377,17.229z"/>
	</g>
</g>
</svg>

<?xml version="1.0" encoding="UTF-8" standalone="no"?>
<svg width="132px" height="18px" viewBox="0 0 132 18" version="1.1" xmlns="http://www.w3.org/2000/svg" xmlns:xlink="http://www.w3.org/1999/xlink" xmlns:sketch="http://www.bohemiancoding.com/sketch/ns">
    <title>primark</title>
    <g id="Page 1" fill="#D8D8D8" fill-rule="evenodd">
        <g id="primark" fill="#000000">
            <path d="M1.513,17.229 L1.513,9.567 L5.32,9.567 C6.424,9.567 7.358,9.518 8.123,9.418 C8.888,9.318 9.523,9.165 10.029,8.958 C10.986,8.558 11.683,7.985 12.118,7.241 C12.554,6.496 12.768,5.637 12.762,4.664 C12.755,3.724 12.562,2.895 12.182,2.181 C11.803,1.466 11.28,0.943 10.614,0.613 C10.193,0.406 9.638,0.254 8.952,0.152 C8.265,0.052 7.339,0.003 6.173,0.004 L0,0.004 L0,17.233 L1.513,17.233 L1.513,17.229 L1.513,17.229 Z M1.513,17.229" class="black"/>
            <path d="M1.513,8.176 L1.513,1.392 L5.661,1.392 C6.792,1.379 7.697,1.412 8.376,1.49 C9.055,1.567 9.606,1.772 10.029,2.1 C10.374,2.36 10.642,2.705 10.834,3.139 C11.026,3.574 11.124,4.073 11.127,4.637 C11.126,5.362 10.981,5.981 10.694,6.494 C10.407,7.009 9.981,7.392 9.419,7.64 C8.937,7.843 8.339,7.984 7.625,8.064 C6.912,8.142 6.118,8.179 5.246,8.176 L1.513,8.176 L1.513,8.176 Z M1.513,8.176" class="white" fill="#FFFFFF"/>
            <path d="M33.047,17.229 L27.606,9.495 C29.199,9.316 30.409,8.82 31.235,8.007 C32.063,7.194 32.481,6.111 32.485,4.762 C32.471,3.716 32.24,2.83 31.789,2.106 C31.338,1.379 30.758,0.867 30.047,0.565 C29.45,0.317 28.784,0.16 28.049,0.091 C27.316,0.024 26.508,-0.006 25.631,0.002 L20.336,0.002 L20.336,17.23 L21.873,17.23 L21.873,9.665 L25.997,9.665 L31.145,17.228 L33.047,17.229 L33.047,17.229 Z M33.047,17.229" class="black"/>
            <path d="M21.871,8.272 L21.871,1.392 L25.873,1.392 C26.701,1.382 27.418,1.414 28.027,1.491 C28.633,1.566 29.144,1.745 29.558,2.027 C29.996,2.326 30.322,2.706 30.535,3.169 C30.747,3.631 30.853,4.147 30.851,4.712 C30.853,5.281 30.771,5.775 30.607,6.193 C30.443,6.611 30.191,6.972 29.851,7.273 C29.457,7.625 28.925,7.879 28.255,8.04 C27.585,8.201 26.79,8.277 25.873,8.275 L21.87,8.275 L21.871,8.272 L21.871,8.272 Z M21.871,8.272" class="white" fill="#FFFFFF"/>
            <path d="M42.959,17.229 L42.959,0.001 L41.422,0.001 L41.422,17.23 L42.959,17.23 L42.959,17.229 Z M42.959,17.229" class="black"/>
            <path d="M68.02,17.229 L68.02,0.001 L65.727,0.001 C64.395,3.608 63.384,6.344 62.7,8.204 C62.012,10.065 61.504,11.461 61.168,12.393 C60.832,13.328 60.522,14.205 60.237,15.033 C59.93,14.149 59.6,13.227 59.252,12.27 C58.901,11.311 58.375,9.911 57.669,8.069 C56.964,6.227 55.925,3.538 54.552,0.002 L52.33,0.002 L52.33,17.23 L53.818,17.23 C53.818,13.321 53.816,10.334 53.814,8.267 C53.811,6.2 53.803,4.695 53.79,3.753 C53.777,2.811 53.753,2.073 53.723,1.54 C53.975,2.311 54.28,3.186 54.634,4.165 C54.988,5.144 55.545,6.623 56.3,8.603 C57.055,10.582 58.154,13.457 59.604,17.23 L60.799,17.23 C61.947,14.192 62.886,11.708 63.611,9.772 C64.338,7.838 64.931,6.237 65.394,4.971 C65.857,3.705 66.269,2.552 66.628,1.516 C66.605,2.09 66.585,2.832 66.569,3.741 C66.555,4.649 66.546,6.126 66.54,8.173 C66.534,10.219 66.531,13.239 66.531,17.23 L68.018,17.23 L68.018,17.229 L68.02,17.229 L68.02,17.229 Z M68.02,17.229" class="black"/>
            <path d="M89.592,17.229 L83.076,0.001 L81.466,0.001 L74.756,17.23 L76.464,17.23 L78.294,12.204 L86.078,12.204 L87.884,17.23 L89.592,17.23 L89.592,17.229 L89.592,17.229 Z M89.592,17.229" class="black"/>
            <path d="M78.807,10.86 C79.561,8.862 80.159,7.283 80.592,6.122 C81.03,4.961 81.367,4.053 81.608,3.395 C81.85,2.74 82.055,2.168 82.223,1.684 C82.393,2.184 82.594,2.757 82.83,3.408 C83.066,4.057 83.398,4.958 83.827,6.112 C84.257,7.264 84.844,8.848 85.59,10.86 L78.807,10.86 L78.807,10.86 Z M78.807,10.86" class="white" fill="#FFFFFF"/>
            <path d="M109.443,17.229 L104.002,9.495 C105.594,9.316 106.805,8.82 107.632,8.007 C108.461,7.194 108.878,6.111 108.883,4.762 C108.868,3.716 108.635,2.83 108.186,2.106 C107.735,1.379 107.153,0.867 106.444,0.565 C105.846,0.317 105.18,0.16 104.446,0.091 C103.713,0.024 102.905,-0.006 102.026,0.002 L96.73,0.002 L96.73,17.23 L98.267,17.23 L98.267,9.665 L102.39,9.665 L107.538,17.228 L109.443,17.229 L109.443,17.229 Z M109.443,17.229" class="black"/>
            <path d="M98.268,8.272 L98.268,1.392 L102.27,1.392 C103.098,1.382 103.817,1.414 104.423,1.491 C105.031,1.566 105.542,1.745 105.954,2.027 C106.392,2.326 106.718,2.706 106.932,3.169 C107.145,3.631 107.249,4.147 107.248,4.712 C107.249,5.281 107.167,5.775 107.004,6.193 C106.84,6.611 106.588,6.972 106.247,7.273 C105.853,7.625 105.322,7.879 104.652,8.04 C103.98,8.199 103.187,8.277 102.269,8.275 L98.267,8.275 L98.268,8.272 L98.268,8.272 Z M98.268,8.272" class="white" fill="#FFFFFF"/>
            <path d="M131.377,17.229 L124.275,6.688 L130.62,0 L128.668,0 L119.493,9.834 L119.493,0.001 L117.956,0.001 L117.956,17.23 L119.493,17.23 L119.493,11.763 L123.226,7.785 L129.544,17.226 L131.375,17.226 L131.377,17.229 L131.377,17.229 Z M131.377,17.229" class="black"/>
        </g>
    </g>
</svg>
